X:85
T:Fitzgerald's (hornpipe)
B:CRE2.305 (CornphÃÂÃÂÃÂÃÂ­opa Mhic Ghearailt)
F:file ID: cre.2/085fitzg
Q:150
L:1/8
M:4/4
R:hornpipe
K:G
DE/G/|A2 AB AGED|GABd edBd|efge dBGB|(3cBA (3BAG AGEG|
A2 AB AGED|GABd edBd|efge dBGB|1 AcBA G2:|2 AcBA G4||
|:g2 a/g/f/g/ a2 b/a/g/a/|b2 ba ge d2|efge dBGB|(3cBA (3BAG AGEG|
A2 AB AGED|GABd edBd|efge dBGB|AcBA G2 G2:|

%%%

